dist/img/svg/product_i_4.svg

<svg width="50" height="50" viewBox="0 0 50 50" fill="none" xmlns="http://www.w3.org/2000/svg">
<path d="M11.1588 29.6715C10.4836 30.3466 9.38642 30.3466 8.71122 29.6715C8.03602 28.9963 8.03602 27.8991 8.71122 27.2239C9.38642 26.5487 10.4836 26.5487 11.1588 27.2239C11.39 27.455 11.4128 27.3716 11.4862 27.6652M29.7671 11.0448C29.8295 10.9971 29.8845 10.9494 29.9396 10.8907C30.6148 10.2155 30.6148 9.1183 29.9396 8.4431C29.2644 7.7679 28.1672 7.7679 27.492 8.4431C26.8168 9.1183 26.8168 10.2155 27.492 10.8907C27.7232 11.1219 28.0021 11.2723 28.2956 11.3457M38.8368 17.2642L44.5627 11.665C45.1462 11.0815 45.1462 10.1348 44.5627 9.5513L40.0455 5.03409L36.8273 4.4543C33.5688 3.86717 30.2148 4.18275 27.125 5.36802C24.7949 6.26339 23.1326 8.35136 22.7839 10.821C22.6592 11.7127 22.006 12.4356 21.1363 12.6594L18.8428 13.2429C16.0907 13.9438 13.944 16.0904 13.2431 18.8426L12.6597 21.1361C12.4395 22.0058 11.7129 22.6589 10.8212 22.7837C8.34793 23.1323 6.25996 24.7946 5.36826 27.1248C4.183 30.2145 3.86741 33.5722 4.45454 36.8271L5.03433 40.0453L9.55155 44.5625C10.135 45.1459 11.0818 45.1459 11.6652 44.5625L17.2645 38.8366M13.1294 43.0983L14.8797 44.8487C18.6851 45.1349 22.5014 44.401 25.9288 42.7277L26.6039 42.3975L34.5008 34.5006L42.3977 26.6037L42.728 25.9285C44.4049 22.4975 45.1352 18.6848 44.849 14.8795L43.0986 13.1291M34.4972 34.5006L28.8211 28.8208" stroke="#6C757D" stroke-width="2" stroke-linecap="round" stroke-linejoin="round"/>
<path d="M12.7274 34.6256L10.2465 37.1065C9.91785 37.4351 9.91785 37.9696 10.2465 38.2982L11.7018 39.7535C12.0304 40.0822 12.5649 40.0822 12.8935 39.7535L15.3816 37.2654M37.2654 15.3816L39.7535 12.8935C40.0822 12.5649 40.0822 12.0304 39.7535 11.7018L38.2982 10.2465C37.9696 9.91785 37.4351 9.91785 37.1065 10.2465L34.6256 12.7274M23.0915 18.2416C23.1601 16.5805 23.532 15.2516 24.8826 13.9046C28.4036 10.3837 34.4198 10.8748 37.2438 15.3852C39.0819 18.3211 38.728 22.0515 36.4601 24.6696C35.0879 26.2549 33.5784 26.7713 31.715 26.8724C29.1872 27.0096 26.9663 29.2197 26.8616 31.7475C26.793 33.4087 26.421 34.7376 25.0704 36.0846C21.5495 39.6055 15.5333 39.1144 12.7093 34.604C10.8712 31.6681 11.2251 27.9377 13.4929 25.3196C14.8652 23.7343 16.3747 23.2179 18.238 23.1168C20.7659 22.9795 22.9868 20.7695 23.0915 18.2416Z" stroke="#6B3D90" stroke-width="2" stroke-linecap="round" stroke-linejoin="round"/>
</svg>

<svg width="50" height="50" viewBox="0 0 50 50" fill="none" xmlns="http://www.w3.org/2000/svg"><path d="M11.159 29.672a1.732 1.732 0 01-2.448 0 1.732 1.732 0 012.448-2.448c.231.231.254.148.327.441m18.281-16.62a1.732 1.732 0 10-2.275-2.602 1.732 1.732 0 00.804 2.903m10.54 5.918l5.727-5.599a1.495 1.495 0 000-2.114l-4.518-4.517-3.218-.58a18.114 18.114 0 00-9.702.914 6.873 6.873 0 00-4.341 5.453 2.218 2.218 0 01-1.648 1.838l-2.293.584a7.75 7.75 0 00-5.6 5.6l-.583 2.293a2.214 2.214 0 01-1.839 1.648 6.862 6.862 0 00-5.453 4.34 18.118 18.118 0 00-.913 9.703l.58 3.218 4.517 4.517c.583.584 1.53.584 2.113 0l5.6-5.725m-4.136 4.261l1.75 1.75a21.517 21.517 0 0011.05-2.12l.675-.33L34.5 34.5l7.897-7.897.33-.675a21.487 21.487 0 002.121-11.05l-1.75-1.75M34.496 34.5l-5.676-5.68" stroke="#6C757D" stroke-width="2" stroke-linecap="round" stroke-linejoin="round"/><path d="M12.727 34.626l-2.48 2.48a.843.843 0 000 1.192l1.455 1.456a.843.843 0 001.191 0l2.489-2.489m21.883-21.883l2.489-2.489a.843.843 0 000-1.191l-1.456-1.456a.843.843 0 00-1.192 0l-2.48 2.481m-11.534 5.515c.068-1.662.44-2.99 1.79-4.337 3.522-3.521 9.538-3.03 12.362 1.48 1.838 2.936 1.484 6.667-.784 9.285-1.372 1.585-2.882 2.101-4.745 2.202-2.528.138-4.749 2.348-4.853 4.875-.069 1.662-.441 2.99-1.792 4.338-3.52 3.52-9.537 3.03-12.36-1.481-1.839-2.936-1.485-6.666.783-9.284 1.372-1.586 2.882-2.102 4.745-2.203 2.528-.137 4.749-2.348 4.854-4.875z" stroke="#6B3D90" stroke-width="2" stroke-linecap="round" stroke-linejoin="round"/></svg>
